static/images/earn/recurring.svg

<svg height="44" viewBox="0 0 52 44" width="52" xmlns="http://www.w3.org/2000/svg"><g fill="none" fill-rule="evenodd"><g transform="translate(-2 -7)"><path d="m0 0h58v58h-58z"/><path d="m31.4166667 7.25c-12.0108334 0-21.75000003 9.7391667-21.75000003 21.75h-7.25l9.40083333 9.4008333.1691667.3383334 9.7633333-9.7391667h-7.25c0-9.3525 7.5641667-16.9166667 16.9166667-16.9166667s16.9166666 7.5641667 16.9166666 16.9166667-7.5641666 16.9166667-16.9166666 16.9166667c-4.6641667 0-8.8933334-1.9091667-11.9383334-4.9783334l-3.4316666 3.4316667c3.9391666 3.9391667 9.3525 6.38 15.37 6.38 12.0108333 0 21.75-9.7391667 21.75-21.75s-9.7391667-21.75-21.75-21.75z" fill="#7ea7bf" fill-rule="nonzero"/></g><g transform="translate(20 10)"><path d="m0 0h22v24h-22z"/><path d="m10.1523685 10.8266667c-2.18031-.6293334-2.88146696-1.28000003-2.88146696-2.29333336 0-1.16266668.97009388-1.97333335 2.59332025-1.97333335 1.70967041 0 2.34359311.90666667 2.40122241 2.24000002h2.1226807c-.0672343-1.83466668-1.0757477-3.52000001-3.0831697-4.06400002v-2.33599999h-2.88146687v2.304c-1.86334861.44800001-3.36171141 1.79200001-3.36171141 3.85066666 0 2.46400004 1.83453392 3.69066664 4.51429818 4.40533334 2.4012224.64 2.8814669 1.5786667 2.8814669 2.5706667 0 .736-.4706396 1.9093333-2.59332021 1.9093333-1.9786073 0-2.75660337-.9813333-2.86225715-2.24h-2.11307575c.11525868 2.336 1.69046059 3.648 3.53459944 4.0853333v2.3146667h2.88146687v-2.2933333c1.8729535-.3946667 3.3617115-1.6 3.3617115-3.7866667 0-3.0293333-2.3339882-4.064-4.5142982-4.6933333z" fill="#7ea7bf" fill-rule="nonzero"/></g></g></svg>

<?xml version="1.0" encoding="UTF-8"?>
<svg width="52px" height="44px" viewBox="0 0 52 44" version="1.1" xmlns="http://www.w3.org/2000/svg" xmlns:xlink="http://www.w3.org/1999/xlink">
    <!-- Generator: Sketch 53.2 (72643) - https://sketchapp.com -->
    <title>Group</title>
    <desc>Created with Sketch.</desc>
    <g id="Page-1" stroke="none" stroke-width="1" fill="none" fill-rule="evenodd">
        <g id="recurring" transform="translate(-14.000000, -7.000000)">
            <g id="Group" transform="translate(12.000000, 0.000000)">
                <g id="recurring">
                    <polygon id="Path" points="0 0 58 0 58 58 0 58"></polygon>
                    <path d="M31.4166667,7.25 C19.4058333,7.25 9.66666667,16.9891667 9.66666667,29 L2.41666667,29 L11.8175,38.4008333 L11.9866667,38.7391667 L21.75,29 L14.5,29 C14.5,19.6475 22.0641667,12.0833333 31.4166667,12.0833333 C40.7691667,12.0833333 48.3333333,19.6475 48.3333333,29 C48.3333333,38.3525 40.7691667,45.9166667 31.4166667,45.9166667 C26.7525,45.9166667 22.5233333,44.0075 19.4783333,40.9383333 L16.0466667,44.37 C19.9858333,48.3091667 25.3991667,50.75 31.4166667,50.75 C43.4275,50.75 53.1666667,41.0108333 53.1666667,29 C53.1666667,16.9891667 43.4275,7.25 31.4166667,7.25 Z" id="Shape" fill="#7EA7BF" fill-rule="nonzero"></path>
                </g>
                <g id="outline-attach_money-24px" transform="translate(22.000000, 17.000000)">
                    <polygon id="Path" points="0 0 22 0 22 24 0 24"></polygon>
                    <path d="M10.1523685,10.8266667 C7.9720585,10.1973333 7.27090154,9.54666667 7.27090154,8.53333334 C7.27090154,7.37066666 8.24099542,6.55999999 9.86422179,6.55999999 C11.5738922,6.55999999 12.2078149,7.46666666 12.2654442,8.80000001 L14.3881249,8.80000001 C14.3208906,6.96533333 13.3123772,5.28 11.3049552,4.73599999 L11.3049552,2.4 L8.42348833,2.4 L8.42348833,4.704 C6.56013972,5.15200001 5.06177692,6.49600001 5.06177692,8.55466666 C5.06177692,11.0186667 6.89631084,12.2453333 9.5760751,12.96 C11.9772975,13.6 12.457542,14.5386667 12.457542,15.5306667 C12.457542,16.2666667 11.9869024,17.44 9.86422179,17.44 C7.88561449,17.44 7.10761842,16.4586667 7.00196464,15.2 L4.88888889,15.2 C5.00414757,17.536 6.57934948,18.848 8.42348833,19.2853333 L8.42348833,21.6 L11.3049552,21.6 L11.3049552,19.3066667 C13.1779087,18.912 14.6666667,17.7066667 14.6666667,15.52 C14.6666667,12.4906667 12.3326785,11.456 10.1523685,10.8266667 Z" id="Path" fill="#7EA7BF" fill-rule="nonzero"></path>
                </g>
            </g>
        </g>
    </g>
</svg>
